style/icons/folderSidebar.svg

<svg width="50" height="59" viewBox="0 0 50 59" fill="none" xmlns="http://www.w3.org/2000/svg">
<mask id="mask0_153_3502" style="mask-type:luminance" maskUnits="userSpaceOnUse" x="3" y="17" width="21" height="9">
<path d="M3.33374 17.863H23.3837V25.7839H3.33374V17.863Z" fill="white"/>
</mask>
<g mask="url(#mask0_153_3502)">
<mask id="mask1_153_3502" style="mask-type:luminance" maskUnits="userSpaceOnUse" x="3" y="17" width="21" height="9">
<path d="M4.86014 17.863H21.8308C22.6735 17.863 23.3572 18.5441 23.3572 19.3894V24.2575C23.3572 25.1002 22.6735 25.7839 21.8308 25.7839H4.86014C4.01744 25.7839 3.33374 25.1002 3.33374 24.2575V19.3894C3.33374 18.5441 4.01744 17.863 4.86014 17.863Z" fill="white"/>
</mask>
<g mask="url(#mask1_153_3502)">
<path d="M3.33374 17.863H23.3519V25.7839H3.33374V17.863Z" fill="#D7C1DC"/>
</g>
</g>
<mask id="mask2_153_3502" style="mask-type:luminance" maskUnits="userSpaceOnUse" x="19" y="20" width="27" height="6">
<path d="M19.1147 20.7435H45.273V25.7838H19.1147V20.7435Z" fill="white"/>
</mask>
<g mask="url(#mask2_153_3502)">
<mask id="mask3_153_3502" style="mask-type:luminance" maskUnits="userSpaceOnUse" x="19" y="20" width="27" height="6">
<path d="M20.6412 20.7435H43.7307C44.5734 20.7435 45.2571 21.4272 45.2571 22.2699V24.2574C45.2571 25.1001 44.5734 25.7838 43.7307 25.7838H20.6412C19.7984 25.7838 19.1147 25.1001 19.1147 24.2574V22.2699C19.1147 21.4272 19.7984 20.7435 20.6412 20.7435Z" fill="white"/>
</mask>
<g mask="url(#mask3_153_3502)">
<path d="M19.1147 20.7435H45.2544V25.7838H19.1147V20.7435Z" fill="#D7C1DC"/>
</g>
</g>
<mask id="mask4_153_3502" style="mask-type:luminance" maskUnits="userSpaceOnUse" x="0" y="27" width="50" height="32">
<path d="M0 27.774H49.4465V58.1298H0V27.774Z" fill="white"/>
</mask>
<g mask="url(#mask4_153_3502)">
<mask id="mask5_153_3502" style="mask-type:luminance" maskUnits="userSpaceOnUse" x="0" y="27" width="50" height="32">
<path d="M3.56161 27.774H45.8398C47.8062 27.774 49.4015 29.3693 49.4015 31.3356V54.5682C49.4015 56.5345 47.8062 58.1298 45.8398 58.1298H3.56161C1.59531 58.1298 0 56.5345 0 54.5682V31.3356C0 29.3693 1.59531 27.774 3.56161 27.774Z" fill="white"/>
</mask>
<g mask="url(#mask5_153_3502)">
<path d="M0 27.774H49.4465V58.1298H0V27.774Z" fill="#482F87"/>
</g>
</g>
<path d="M33.2151 15.5707V2" stroke="#F47950" stroke-width="3.05281" stroke-linecap="round"/>
<path d="M28.6357 10.2283L33.215 16.3339L37.7942 10.2283" stroke="#F47950" stroke-width="3.05281" stroke-linecap="round" stroke-linejoin="round"/>
</svg>

<svg xmlns="http://www.w3.org/2000/svg" width="50" height="59" fill="none"><mask id="a" width="21" height="9" x="3" y="17" maskUnits="userSpaceOnUse" style="mask-type:luminance"><path fill="#fff" d="M3.334 17.863h20.05v7.92H3.334z"/></mask><g mask="url(#a)"><mask id="b" width="21" height="9" x="3" y="17" maskUnits="userSpaceOnUse" style="mask-type:luminance"><path fill="#fff" d="M4.86 17.863h16.97c.844 0 1.527.681 1.527 1.526v4.869c0 .842-.683 1.526-1.526 1.526H4.86a1.527 1.527 0 0 1-1.527-1.526v-4.869c0-.845.683-1.526 1.526-1.526Z"/></mask><g mask="url(#b)"><path fill="#D7C1DC" d="M3.334 17.863h20.018v7.92H3.334z"/></g></g><mask id="c" width="27" height="6" x="19" y="20" maskUnits="userSpaceOnUse" style="mask-type:luminance"><path fill="#fff" d="M19.115 20.744h26.158v5.04H19.115z"/></mask><g mask="url(#c)"><mask id="d" width="27" height="6" x="19" y="20" maskUnits="userSpaceOnUse" style="mask-type:luminance"><path fill="#fff" d="M20.641 20.744h23.09c.842 0 1.526.683 1.526 1.526v1.987c0 .843-.684 1.527-1.526 1.527H20.64a1.527 1.527 0 0 1-1.526-1.527V22.27c0-.843.683-1.526 1.526-1.526Z"/></mask><g mask="url(#d)"><path fill="#D7C1DC" d="M19.115 20.744h26.14v5.04h-26.14z"/></g></g><mask id="e" width="50" height="32" x="0" y="27" maskUnits="userSpaceOnUse" style="mask-type:luminance"><path fill="#fff" d="M0 27.774h49.447V58.13H0z"/></mask><g mask="url(#e)"><mask id="f" width="50" height="32" x="0" y="27" maskUnits="userSpaceOnUse" style="mask-type:luminance"><path fill="#fff" d="M3.562 27.774H45.84a3.563 3.563 0 0 1 3.561 3.562v23.232a3.563 3.563 0 0 1-3.561 3.562H3.562A3.563 3.563 0 0 1 0 54.568V31.336a3.563 3.563 0 0 1 3.562-3.562"/></mask><g mask="url(#f)"><path fill="#482F87" d="M0 27.774h49.447V58.13H0z"/></g></g><path stroke="#F47950" stroke-linecap="round" stroke-width="3.053" d="M33.215 15.57V2"/><path stroke="#F47950" stroke-linecap="round" stroke-linejoin="round" stroke-width="3.053" d="m28.636 10.228 4.579 6.106 4.58-6.106"/></svg>
